X: 25028
T: Maiden Lane
R: barndance
M: 4/4
K: Gmajor
|:d3 c BA G2|g2 f2 g2 d2|g2 f2 g2 dc|B2 A2 G4:|
|:ABcd e2 A2|c2 B2 A3 z|e2 e2 e2 dc|BABc A4:|
|:d2 Bc d2 Bc|dcBA B2 G2|d2 Bc dedc|B2 A2 G4:|

